icons/general-add-square-1-filled.svg

<svg viewBox="0 0 24 24"><path fill="currentColor" fill-rule="evenodd" d="M21.6 6a3.6 3.6 0 0 0-3.6-3.6h-12a3.6 3.6 0 0 0-3.6 3.6v12a3.6 3.6 0 0 0 3.6 3.6h12a3.6 3.6 0 0 0 3.6-3.6zm-8.6 2.4a1 1 0 1 0-2 0v2.6h-2.6a1 1 0 1 0 0 2h2.6v2.6a1 1 0 1 0 2 0v-2.6h2.6a1 1 0 1 0 0-2h-2.6z" clip-rule="evenodd"/></svg>

<svg viewBox="0 0 24 24"><path fill="currentColor" fill-rule="evenodd" d="M21.6 6A3.6 3.6 0 0 0 18 2.4H6A3.6 3.6 0 0 0 2.4 6v12A3.6 3.6 0 0 0 6 21.6h12a3.6 3.6 0 0 0 3.6-3.6zM13 8.4a1 1 0 1 0-2 0V11H8.4a1 1 0 1 0 0 2H11v2.6a1 1 0 1 0 2 0V13h2.6a1 1 0 1 0 0-2H13z" clip-rule="evenodd"/></svg>
